X:1
T:Piano Sonata in D, No. 18
T:II 
T:W. A. Mozart KV 576 
C:W. A. Mozart
%%score { 1 | ( 2 3 ) }
L:1/8
Q:1/4=42
M:3/4
K:A
V:1 treble nm="Piano" snm="Pno."
V:2 bass 
V:3 bass 
V:1
"^Adagio"!mp! (c3/2!fermata!d/8c/8!fermata!B/8!fermata!c/8 edBG) | (A3/2c/4A/4) e4- | %2
 e/(a/g/=g/ ^e/f/=e/d/ !fermata!c/B/!fermata!d/!fermata!f/) | %3
 (A3/2B/4A/4) !wedge!^G/(E/F/G/ A/!fermata!^A/!fermata!B/!fermata!^B/) | %4
 (c3/2!fermata!d/8c/8!fermata!!courtesy!=B/8!fermata!c/8) (edBG) | %5
 (A3/2c/4A/4) ^e2-!<(! (e/f/!fermata!g/!fermata!a/)!<)! | %6
!mf! !fermata!a-(a/4b/4c'/4a/4) (e/!>(!a/c/f/ e/!fermata!^d/!fermata!=d/!fermata!B/)!>)! | %7
 (B2!p! A2) z2 |!mp! d-(d/4f/4e/4f/4 d/4e/4c/4d/4 B/4c/4A/4B/4) G z | %9
 e-(e/4^d/4f/4e/4 a/4g/4b/4a/4 c'/4b/4d'/4c'/4 e') z | %10
 a-(a/4c'/4b/4c'/4 a/4b/4g/4a/4 f/4g/4e/4f/4 ^d/4e/4f/4!fermata!g/4 !fermata!b/4a/4!fermata!f/4!fermata!d/4) | %11
 f2- (f/^d/e/!fermata!^e/ !fermata!g/f/!fermata!!courtesy!=e/!fermata!=d/) | %12
 (c3/2!fermata!d/8c/8!fermata!B/8!fermata!c/8 edBG) | (A3/2c/4A/4) =g4 | %14
 (^e/4f/4^g/4f/4 =e/4d/4c/4B/4)!mp! !wedge!A/!wedge!c<!fermata!e (E/!fermata!F/!fermata!G/) | %15
 (!fermata!B2 A)(.^A.!fermata!B.!fermata!^B) | %16
 !fermata!c2 z/ f/a/^e/ f/!fermata!^B/!fermata!d/!fermata!c/ | %17
 !fermata!c2 z/ g/b/^e/ g/^B/!fermata!d/!fermata!c/ | !fermata!z/ a/ z/ g/ z/ ^e/f/g/ b/a/g/f/- | %19
 (f/^e/g/!fermata!^B/ c) z z2 | !fermata!c2 z/ f/a/^e/ f/!fermata!^B/!fermata!d/!fermata!c/ | %21
 !fermata!c2 z/ =g/b/e/ g/!fermata!B/!fermata!d/!fermata!c/ | %22
 !fermata!z/ d/ z/ ^d/ z/ e/ !fermata!z/ =f/ !fermata!z/ (!fermata!^f/!fermata!a/!fermata!!courtesy!^c/) | %23
 !fermata!d/4e/4d/4c/4 d/4e/4f/4=g/4 !fermata!a/4b/4a/4^g/4 a/4b/4c'/4d'/4 c'/4e'/4c'/4a/4 =g/4a/4g/4e/4 | %24
 !fermata!d/4e/4d/4c/4 d/4e/4f/4=g/4 !fermata!a/4b/4a/4^g/4 a/4b/4c'/4d'/4 c'/4e'/4c'/4a/4 =g/4a/4g/4e/4 | %25
 d2 z2 z2 | %26
 z/4 B/4^c/4^d/4 e/4f/4^g/4^a/4 b/4=a/4=c'/4b/4 a/4=g/4f/4e/4 d/4e/4f/4e/4 d/4=c/4B/4A/4 | %27
 !courtesy!=G2 z2 z2 | %28
 z/4 c/4^d/4^e/4 f/4^g/4^a/4^b/4 c'/4=b/4=d'/4c'/4 b/4=a/4g/4f/4 e/4f/4g/4f/4 e/4!courtesy!=d/4c/4B/4 | %29
 A/4F/4G/4A/4 B/4c/4^d/4^e/4 f/4g/4f/4e/4 f/4g/4f/4e/4 f/4g/4a/4g/4 b/4a/4g/4f/4 | %30
 ^e/4f/4g/4f/4 e/4^d/4c/4^B/4 c/4=B/4=d/4c/4 B/4A/4G/4!fermata!F/4 x2 | %31
 !fermata!c2 z/ f/a/^e/ f/^B/!fermata!d/!fermata!c/ | %32
 !fermata!c2 z/ g/b/^e/ g/^B/!fermata!d/!fermata!c/ | !fermata!z/ a/ z/ g/ z/ ^e/f/g/ b/a/g/f/- | %34
 (f/^e/g/!fermata!^B/ c) z z2 | !fermata!c2 z/ f/a/^e/ f/^B/!fermata!d/!fermata!c/ | %36
 !fermata!c2 z/ =g/^a/e/ g/!fermata!c/!fermata!e/!fermata!^A/ | %37
 !fermata!z/ B/ z/ ^B/ z/ c/f/!fermata!A/ !fermata!c/!fermata!F/!fermata!!courtesy!=B/!fermata!^E/ | %38
 !fermata!F/G/4A/4 B/4c/4^d/4^e/4 f/4g/4a/4b/4 c'/4a/4g/4f/4 !fermata!e/4g/4e/4c/4 B/4c/4!fermata!B/4!fermata!G/4 | %39
 !fermata!F/G/4A/4 B/4c/4^d/4^e/4 f/4g/4a/4b/4 c'/4a/4g/4f/4 !fermata!e/4g/4e/4c/4 B/4c/4!fermata!B/4!fermata!G/4 | %40
 F2 z/4 F/4G/4A/4 B/4c/4^d/4^e/4 f/4g/4a/4b/4 c'/4a/4f/4c/4 | %41
 =d2 z/4 A/4B/4c/4 d/4e/4=f/4=g/4 a/4d/4f/4a/4 d'/4=c'/4b/4a/4 | %42
 a/4^g/4b/4^a/4 ^c'/4b/4=a/4g/4 ^f/4e/4f/4^e/4 g/4f/4=e/4!fermata!d/4 (!fermata!c/4B/4d/4!fermata!c/4 !fermata!e/4!fermata!d/4!fermata!c/4!fermata!^B/4) | %43
!mp! (c3/2!fermata!d/8c/8!fermata!=B/8!fermata!c/8) (edBG) | (A3/2c/4A/4) e4- | %45
 e/(a/g/=g/ ^e/f/=e/d/ !fermata!c/B/!fermata!d/!fermata!f/) | %46
 (A3/2B/4A/4) !wedge!^G/(E/F/G/ A/!fermata!^A/!fermata!B/!fermata!^B/) | %47
 (c3/2!fermata!d/8c/8!fermata!!courtesy!=B/8!fermata!c/8) (edBG) | %48
 (A3/2c/4A/4) ^e2-!<(! (e/f/!fermata!g/!fermata!a/)!<)! | %49
!mf! !fermata!a-(a/4b/4c'/4a/4) (e/!>(!a/c/f/ e/!fermata!^d/!fermata!=d/!fermata!B/)!>)! | %50
 (B2!p! A2) z2 |!mp! d-(d/4f/4e/4f/4 d/4e/4c/4d/4 B/4c/4A/4B/4) G z | %52
 e-(e/4^d/4f/4e/4 a/4g/4b/4a/4 c'/4b/4d'/4c'/4 e') z | %53
 a-(a/4c'/4b/4c'/4 a/4b/4g/4a/4 f/4g/4e/4f/4 ^d/4e/4f/4!fermata!g/4 !fermata!b/4a/4!fermata!f/4!fermata!d/4) | %54
 f2- (f/^d/e/!fermata!^e/ !fermata!g/f/!fermata!!courtesy!=e/!fermata!=d/) | %55
 (c3/2!fermata!d/8c/8!fermata!B/8!fermata!c/8 edBG) | (A3/2c/4A/4) =g4 | %57
 (^e/4f/4^g/4f/4 =e/4d/4c/4B/4)!mp! !wedge!A/!wedge!c<!fermata!e (E/!fermata!F/!fermata!G/) | %58
 A2 z/ (a/c'/e/ ^e/f/a/f/) | (^d!courtesy!=e) z/ (a/c'/e/ ^e/f/a/f/) | %60
 (^d/4!courtesy!=e/4f/4e/4 =d/4c/4B/4!fermata!A/4) c !fermata!z"^"!p!{/!fermata!x!fermata!x!fermata!x!fermata!x} (!fermata!B/>A/B/>c/) | %61
 A2 z/!mp! (a/c'/e/ ^e/f/a/f/) | (^d!courtesy!=e) z/ (a/c'/e/ ^e/f/a/f/) | %63
 (^d/4!courtesy!=e/4f/4e/4 =d/4c/4B/4!fermata!A/4) c !fermata!z"^"!p!{/!fermata!x!fermata!x!fermata!x!fermata!x} (!fermata!B/>A/B/>c/) | %64
 .A/4!mp!.E/4.F/4.G/4 .A/4.B/4.c/4.d/4 .e/4.f/4.g/4.a/4 .^a/4.!fermata!b/4.!fermata!^b/4.!fermata!c'/4 (d'g) | %65
 .!courtesy!=a/4.c'/4.a/4.g/4 .f/4.e/4.d/4.c/4 .B/4.A/4.G/4.!fermata!=G/4 .!fermata!F/4.!fermata!=F/4.!fermata!E/4.!fermata!^D/4 (!fermata!=D!fermata!!courtesy!^G,) | %66
 (!fermata!B,2!p! A,) z z2 |] %67
V:2
 E6-!ped!!ped-up!!ped!!ped-up! |!p!!ped! E2!ped-up![K:treble] z .[Gd].[Gd].[Gd] | %2
!ped! ([Ac]2!ped-up! [Dd]2) z2 |[K:bass]!ped! (C2!ped-up! B,2) z2 | %4
[K:treble] ([A,A]2!ped! [B,G]2!ped-up!!ped! [DE]2)!ped-up! | %5
!p!!ped! [CE]2!ped-up!!ped! z ([DB]!ped-up!!ped![^D=c])!ped-up!!ped![Dc]!ped-up! | %6
!mp!!ped! [E^c]2!ped-up! z2[K:bass] z!ped! [E,D]!ped-up! | ([A,-D]2 [A,C])!mp! E,C,A,, | %8
 z!p! [G,B,][G,B,][A,C]!ped![B,D][B,D]!ped-up! |!mp! z [CE][CE][B,!courtesy!=D]C!mp!B, | %10
!ped! z!p! [A,C]!ped-up![A,C][A,C][A,B,]!ped![A,B,]!ped-up! | [E,-A,B,-]2 [E,G,B,] z z2 | %12
[K:treble]!p! ([^A,=G]2!ped! [B,F]2!ped-up!!ped! [D=F]2!ped-up! | %13
!p!!ped! [CE]2)!ped-up! z!<(! ([C^A][DB][Ec])!<)! | [Dd] z[K:bass]!ped! [E,C]!ped-up! z [E,D] z | %15
 ([A,-D]2!p! [A,C]) z z2 | %16
!p!!ped! F,/[I:staff -1][FA]/[FA]/[FA]/ [FA]/[FA]/[FA]/[FA]/!ped-up! [FA]/[FA]/[FA]/[FA]/ | %17
!p!!ped![I:staff +1] ^E,/[I:staff -1][^EG]/[EG]/[EG]/ [EG]/[EG]/[EG]/[EG]/ [EG]/[EG]/[EG]/[EG]/!ped-up! | %18
[I:staff +1][K:treble]!p!!ped! c4!ped-up!!ped!!ped-up! ^B2 | %19
 [Cc]2[K:bass] z/!mp! (^E/G/C/ !fermata!D/!fermata!G,/!fermata!B,/!fermata!^E,/) | %20
!ped! F,/!p![I:staff -1]!fermata![FA]/[FA]/[FA]/ [FA]/[FA]/[FA]/[FA]/!ped-up! [FA]/[FA]/[FA]/[FA]/ | %21
!p!!ped![I:staff +1] =E,/[I:staff -1][=E=G]/[EG]/[EG]/ [EG]/[EG]/[EG]/[EG]/ [EG]/[EG]/[EG]/[EG]/!ped-up! | %22
[I:staff +1][K:treble]!p!!ped! A!ped-up!!ped!=c!ped-up!!ped! B!ped-up!!ped! !courtesy!=d2!ped-up!!ped!!ped-up!!ped! =G!ped-up! | %23
!p!!ped! F/!ped-up!A/!ped!A/!ped-up!A/!ped! F/!ped-up!A/!ped!A/A/!ped-up!!p!!ped! =G/A/!ped-up!!ped!A/A/!ped-up! | %24
!p!!ped! F/!ped-up!A/!ped!A/!ped-up!A/!ped! F/!ped-up!A/!ped!A/A/!ped-up!!p!!ped! =G/A/!ped-up!!ped!A/A/!ped-up! | %25
[K:bass] z/4!mp! D,/4E,/4F,/4 =G,/4A,/4B,/4C/4[I:staff -1] D/4C/4E/4D/4 F/4E/4=G/4F/4 A/4^G/4=c/4B/4 A/4=G/4F/4E/4 | %26
 ^D2[I:staff +1] z2 z2 | %27
 z/4 E,/4F,/4!courtesy!=G,/4 A,/4B,/4^C/4^D/4[I:staff -1] E/4^D/4F/4E/4 !courtesy!=G/4F/4A/4G/4 B/4^A/4!courtesy!=d/4^c/4 B/4=A/4^G/4F/4 | %28
 ^E2[I:staff +1] z2 z2 | F,2 [^D,B,]2 [=D,^B,]2 | %30
 [C,C]2 z2[I:staff -1] !fermata!^E/4[I:staff +1]D/4!fermata!C/4!fermata!^B,/4 !fermata!C/4!fermata!=B,/4!fermata!A,/4!fermata!G,/4 | %31
!p!!ped! F,/[I:staff -1]!fermata![FA]/[FA]/[FA]/ [FA]/[FA]/[FA]/[FA]/!ped-up! [FA]/[FA]/[FA]/[FA]/ | %32
!p!!ped![I:staff +1] ^E,/[I:staff -1]!fermata![^EG]/[EG]/[EG]/ [EG]/[EG]/[EG]/[EG]/ [EG]/[EG]/[EG]/[EG]/!ped-up! | %33
[I:staff +1][K:treble]!p!!ped! c4!ped-up!!ped!!ped-up! ^B2 | %34
 [Cc]2[K:bass] z/!mp! (^E/G/C/ !fermata!D/!fermata!G,/!fermata!B,/!fermata!^E,/) | %35
!ped! F,/!p![I:staff -1]!fermata![FA]/[FA]/[FA]/ [FA]/[FA]/[FA]/[FA]/!ped-up! [FA]/[FA]/[FA]/[FA]/ | %36
!p!!ped![I:staff +1] =E,/[I:staff -1][=E=G]/[EG]/[EG]/ [EG]/[EG]/[EG]/[EG]/ [EG]/[EG]/[EG]/[EG]/!ped-up! | %37
!p!!ped! F2-!ped-up!!ped!!ped-up!!ped! [CF][I:staff +1] z!ped-up!!ped! A,!ped-up!!ped!G,!ped-up! | %38
!p!!ped! A,/!ped-up!C/!ped!C/!ped-up!C/!ped! A,/!ped-up!C/!ped!C/C/!ped-up!!p!!ped! B,/C/!ped-up!!ped!C/C/!ped-up! | %39
!p!!ped! A,/!ped-up!C/!ped!C/!ped-up!C/!ped! A,/!ped-up!C/!ped!C/C/!ped-up!!p!!ped! B,/C/!ped-up!!ped!C/C/!ped-up! | %40
 z/4!mp! F,,/4G,,/4A,,/4 B,,/4C,/4^D,/4^E,/4 F,2 z2 | z/4 =F,/4=G,/4A,/4 B,/4C/4=D/4E/4 =F2 z2 | %42
!p! [E,-B,D-]4 [E,G,D]2 | E6-!ped!!ped-up!!ped!!ped-up! | %44
!p!!ped! E2!ped-up![K:treble] z .[Gd].[Gd].[Gd] |!ped! ([Ac]2!ped-up! [Dd]2) z2 | %46
[K:bass]!ped! (C2!ped-up! B,2) z2 |[K:treble] ([A,A]2!ped! [B,G]2!ped-up!!ped! [DE]2)!ped-up! | %48
!p!!ped! [CE]2!ped-up!!ped! z ([DB]!ped-up!!ped![^D=c])!ped-up!!ped![Dc]!ped-up! | %49
!mp!!ped! [E^c]2!ped-up! z2[K:bass] z!ped! [E,D]!ped-up! | ([A,-D]2 [A,C])!mp! E,C,A,, | %51
 z!p! [G,B,][G,B,][A,C]!ped![B,D][B,D]!ped-up! |!mp! z [CE][CE][B,!courtesy!=D]C!mp!B, | %53
!ped! z!p! [A,C]!ped-up![A,C][A,C][A,B,]!ped![A,B,]!ped-up! | [E,-A,B,-]2 [E,G,B,] z z2 | %55
[K:treble]!p! ([^A,=G]2!ped! [B,F]2!ped-up!!ped! [D=F]2!ped-up! | %56
!p!!ped! [CE]2)!ped-up! z!<(! ([C^A][DB][Ec])!<)! | [Dd] z[K:bass]!ped! [E,C]!ped-up! z [E,D] z | %58
!p!!ped! A,,/[A,C]/[A,C]/[A,C]/ [A,C]/[A,C]/[A,C]/[A,C]/!ped-up!!ped! [A,D]/[A,D]/!ped-up!!ped![A,D]/[A,D]/!ped-up! | %59
!p!!ped! A,,/[A,C]/[A,C]/[A,C]/ [A,C]/[A,C]/[A,C]/[A,C]/!ped-up!!ped! [A,D]/[A,D]/!ped-up!!ped![A,D]/[A,D]/!ped-up! | %60
 [A,C] z [E,E] z{/xxxx} [E,D]2 | %61
!p!!ped! A,,/[A,C]/[A,C]/[A,C]/ [A,C]/[A,C]/[A,C]/[A,C]/!ped-up!!ped! [A,D]/[A,D]/!ped-up!!ped![A,D]/[A,D]/!ped-up! | %62
!p!!ped! A,,/[A,C]/[A,C]/[A,C]/ [A,C]/[A,C]/[A,C]/[A,C]/!ped-up!!ped! [A,D]/[A,D]/!ped-up!!ped![A,D]/[A,D]/!ped-up! | %63
 [A,C] z [E,E] z{/xxxx} [E,D]2 | [A,C]2 z2[K:treble] z [Ed] | [Ac]2 z2[K:bass] z [E,,D,] | %66
 ([A,,-D,]2 [A,,C,]) z z2 |] %67
V:3
 A,2 B,2 D2 | C2[K:treble] x4 | x6 |[K:bass] E,4 x2 |[K:treble] x6 | x6 | x4[K:bass] x2 | x6 | %8
 E,4- E, z | A,4 A,G, | F,6 | x6 |[K:treble] x6 | x6 | x2[K:bass] x4 | x6 | x6 | x6 | %18
[K:treble] F=E D4 | x2[K:bass] x4 | x6 | x6 |[K:treble] F2 =G^G AA, | D4 A,2 | D4 A,2 | %25
[K:bass] x6 | x6 | x6 | x6 | x6 | x6 | x6 | x6 |[K:treble] F=E D4 | x2[K:bass] x4 | x6 | x6 | %37
[I:staff -1] ^D=D x2[I:staff +1] C,2 | F,4 C,2 | F,4 C,2 | x6 | x6 | x6 | A,2 B,2 D2 | %44
 C2[K:treble] x4 | x6 |[K:bass] E,4 x2 |[K:treble] x6 | x6 | x4[K:bass] x2 | x6 | E,4- E, z | %52
 A,4 A,G, | F,6 | x6 |[K:treble] x6 | x6 | x2[K:bass] x4 | x6 | x6 | x6 | x6 | x6 | x6 | %64
 x4[K:treble] x2 | x4[K:bass] x2 | x6 |] %67

